!!!COM:      Bach, Johann Sebastian
!!!CDT:      1685/03/31/-1750/07/28/
!!!OPR@@GER: Das wohltemperirte Clavier
!!!OVM@@GER: Band II
!!!OPR@ENG:  Well-Tempered Clavier
!!!OVM@ENG:  Book II
!!!OTL:      Prelude
!!!OKY:      A major
!!!ONM:      no. 19
!!!SCT:      BWV 888
!!!OMV:      1
**kern	**kern	**kern
*clefF4	*clefG2	*clefG2
*k[f#c#g#]	*k[f#c#g#]	*k[f#c#g#]
*A:	*A:	*A:
*M12/8	*M12/8	*M12/8
*MM104	*MM104	*MM104
=1-	=1-	=1-
4A	2.r	8e
.	.	8a
8E	.	8g#
4C#	.	8a
.	.	8cc#
8E	.	8b
4AA	8A	[2.cc#
.	8e	.
8BB	8d	.
4C#	8e	.
.	8g#	.
8AA	8f#	.
=2	=2	=2
4E	[2.g#	8cc#]
.	.	8b
8EE	.	8a
4EE	.	8b
.	.	8dd
8E	.	8cc#
4E	8g#]	[2.dd
.	8f#	.
8D	8e	.
4C#	8f#	.
.	8a	.
8BB	8g#	.
=3	=3	=3
8AA	[1.a	8dd]
8A	.	8cc#
8G#	.	8b
8A	.	8cc#
8c#	.	8ee
8B	.	8dd
8c#	.	8ee
8B	.	8dd
8A	.	8cc#
8B	.	8dd
8d	.	8ff#
8c#	.	8ee
=4	=4	=4
4d	8a]	[4.ff#
.	8b	.
8c#	8cc#	.
4B	[4.dd	8ff#]
.	.	8gg#
8A	.	8aa
4G#	8dd]	8bb
.	8cc#	[4ee
8r	8b	.
4A	[4.cc#	8ee]
.	.	8ff#
8r	.	8gg#
=5	=5	=5
4F#	8cc#]	8aa
.	8b	[4dd
8r	8a	.
4G#	[4.b	8dd]
.	.	8ee
8r	.	8dd
4A	4b]	8cc#
.	.	8dd
8C#	8a	8ee
4BB	4g#	8dd
.	.	8ee
8AA	[8a	8cc#
=6	=6	=6
8EE	8a]	4.b
8E	8g#	.
8D#	8f#	.
8E	8g#	[4.ee
8G#	8b	.
8F#	8a	.
[4.G#	[4.b	8ee]
.	.	8ff#
.	.	8ee
8G#]	4b]	4ddW
8B	.	.
8A#	[8f#	8cc#
=7	=7	=7
8B	8f#]	[4.dd
8d	8b	.
8c#	8a#	.
8d	[4.b	8dd]
8f#	.	8dd
8e	.	8cc#
[4.f#	8b]	[4.dd
.	8an	.
.	8g#	.
8f#]	8a	4dd]
8a	8cc#	.
8g#	8b	8bb
=8	=8	=8
4a	4cc#	8ee
.	.	8ff#
8g#	8b	8ee
4f#	[4.a	8dd#
.	.	8ee
8e	.	8ff#
8d#	4a]	4b
8B	.	.
8e	8g#	8cc#
4e	[4.f#	8a
.	.	8g#
8d#X	.	8a
=9	=9	=9
8e	8f#]	4g#
8B	8d#	.
8c#	[8e	8a
8B	4e]	8g#
8G#	.	16f#
.	.	16e
8A	8d#X	8f#
[4.G#	4e	8bb
.	.	8ee
.	8r	8ff#
4G#]	4.r	8ee
.	.	8cc#
8E	.	8ddn
=10	=10	=10
[4.A	8a	4cc#
.	8e	.
.	8f#	8a
4A]	8e	[4.ggn
.	8c#	.
8B	8d	.
8A	8c#	8gg]
8E	8r	8cc#
8F#	8r	8dd
8E	4.r	8cc#
8C#	.	8a#
8D	.	8b
=11	=11	=11
4.C#	8c#	[2.ee
.	8g#	.
.	8f#	.
8r	8g#	.
8r	8b	.
8FF#	8a#	.
8BB	[2.b	8ee]
8F#	.	8dd
8E	.	8cc#
8F#	.	4dd
8A	.	.
8G#	.	8ee
=12	=12	=12
4.A	8b]	[2.cc#
.	8e	.
.	8d	.
8r	8e	.
8r	8g#	.
8AA	8f#	.
8EE#	[2.g#	8cc#]
8D	.	8b
8C#	.	8a
8D#	.	4b
8F#	.	.
8E#X	.	8cc#
=13	=13	=13
8F#	8g#]	[4.a
8A	8f#	.
8G#	8e#	.
8A	[4.f#	4a]
8c#	.	.
8B	.	8dd
[2.c#	8f#]	4g#
.	[4e#X	.
.	.	8cc#
.	8e#]	[4.dd
.	8f#	.
.	8g#	.
=14	=14	=14
1.c#]	[4.a	8dd]
.	.	8b#
.	.	8cc#
.	8a]	[4.ff#
.	8g#	.
.	8f#	.
.	[4.g#	8ff#]
.	.	8dd#
.	.	8ee#
.	8g#]	[4.aa
.	8e#X	.
.	8f#	.
=15	=15	=15
[4.d	[2.b	8aa]
.	.	8gg#
.	.	8ff#
8d]	.	8gg#
8c#	.	8aa
8B	.	8bb
[4.c#	4b]	8ee#
.	.	8cc#
.	8a	[8ff#
4c#]	4.g#	8ff#]
.	.	8gg#
8C#	.	8ee#X
=16	=16	=16
8F#	[4.a	4ff#
8A	.	.
8G#	.	8cc#
8A	4a]	[4.ff#
8c#	.	.
8B	8a	.
[4.c#	[4.g#	8ff#]
.	.	8ee
.	.	8dd
8c#]	8g#]	[4.ee
8B	8a	.
8c#	8g#	.
=17	=17	=17
8d	[4.f#	8ee]
8B	.	8g#
8c#	.	8a
8B	4f#]	[4.dd
8G#	.	.
8A	8f#	.
8G#	[4.e	8dd]
8E	.	8cc#
8F#	.	8b
8Gn	4e]	[4.cc#
8A	.	.
8G	8e	.
=18	=18	=18
8F#	[4.d	8cc#]
8D	.	8b
8E	.	8a
8Fn	4d]	[4.b
8Gn	.	.
8F	8d	.
8E	4.c#	8b]
8Fn	.	8g#
8E	.	[8a
8D#	8cn	4a]
8E	8B	.
8D#	8c	8a
=19	=19	=19
.	.	8aQ
8E	4.B	[4.g#p
8BB	.	.
8C#	.	.
8BB	8r	4g#]
8GG#	8r	.
8AA	8e	8r
[4.GG#	8b	2.r
.	8e	.
.	8f#	.
4GG#]	8e	.
.	8c#	.
8EE	8d	.
=20	=20	=20
4.AA	4c#	8e
.	.	8a
.	8B	8g#
4.r	4c#	8a
.	.	8cc#
.	8d	8b
4.AA	8e	4cc#
.	8a	.
.	8g#	8b
4.r	8a	8cc#
.	8cc#	8ee
.	8b	8dd
=21	=21	=21
8A	[4.cc#	16ee
.	.	16ff#
8E	.	[4ggn
8F#	.	.
8E	4cc#]	4gg]
8C#	.	.
8D	8r	8a
[4.C#	2.r	8ee
.	.	8a
.	.	8b
4C#]	.	8a
.	.	8f#
8AA	.	8gn
=22	=22	=22
4D	8A	4f#
.	8d	.
8AA	8c#	8r
4FF#	8d	4.r
.	8f#	.
8AA	8e	.
4DD	[2.f#	8d
.	.	8a
8EE	.	8gn
4FF#	.	8a
.	.	8cc#
8DD	.	8b
=23	=23	=23
4AA	8f#]	[2.cc#
.	8e	.
8A	8d	.
4A	8e	.
.	8gn	.
8AA	8f#	.
4E	[2.gn	8cc#]
.	.	8b
8e	.	8a#
4e	.	8b
.	.	8dd
8A#	.	8cc#
=24	=24	=24
8B	8g]	[1.dd
8BB	8f#	.
8C#	8e	.
8D	8f#	.
8C#	8a#	.
8BB	8g#X	.
8F#	8a#	.
8E	8g#	.
8D	8f#	.
8E	8g#	.
8Gn	8b	.
8F#	8a#X	.
=25	=25	=25
4Gn	[4.b	8dd]
.	.	8ee
8F#	.	8ff#
4E	8b]	[4.ggn
.	8cc#	.
8D	8dd	.
4C#	8ee	8gg]
.	[4a	8ff#
8r	.	8ee
4D	8a]	[4.ff#
.	8b	.
8r	8cc#	.
=26	=26	=26
4BB	8dd	8ff#]
.	[4gn	8ee
8r	.	8dd
4C#	8g]	[4.ee
.	8a	.
8r	8g	.
4D	8f#	4ee]
.	8g	.
8FF#	8a	8dd
4EE	8g	4cc#
.	8a	.
8DD	8f#	[8dd
=27	=27	=27
8AA	4.e	8dd]
8A	.	8cc#
8G#X	.	8b
8A	[4.a	8cc#
8c#	.	8ee
8B	.	8dd
[4.c#	8a]	[4.ee
.	8b	.
.	8a	.
4c#]	8gn	4ee]
.	8a	.
8d#	8f#	8ff#
=28	=28	=28
8E	[4.gn	8b
8Gn	.	8ee
8F#	.	8dd#
8G	8g]	[4.ee
8B	8f#	.
8A#	8g	.
[4.B	[4.f#	8ee]
.	.	8ddn
.	.	8cc#
8B]	4f#]	8dd
8d	.	8ff#
8c#	8a	8ee
=29	=29	=29
4d	8f#	4ff#
.	8g#X	.
8c#	[8a	8ee
4B	8a]	[4.dd
.	8g#	.
8A	8b	.
8G#	4.e	4dd]
8E	.	.
[8A	.	8cc#
8A]	4.d	4f#
8F#	.	.
8G#	.	[8b
=30	=30	=30
4A	4.c#	8b]
.	.	8e
8F#	.	[8a
4D	4.B	8a]
.	.	8b
8E	.	8g#
[2.AA	8A	4.a
.	8E	.
.	8F#	.
.	8E	4.r
.	8C#	.
.	8D	.
=31	=31	=31
*	*staff:1	*
*	*clefF4	*
1.AA_	4C#	8A
.	.	8e
.	8r	8d
.	4.r	8e
.	.	8gn
.	.	8f#
.	8e	[4.g
.	8A	.
.	8B	.
.	8A	8g]
.	8F#	8a
.	8Gn	8c#
=32	=32	=32
*	*staff:2	*
*	*clefG2	*
2.AA_	8F#	8d
.	8D	8f#
.	8C#	8e
.	8D	8f#
.	8F#	8a
.	8E	8gn
4AA]	8F#	8a
.	8f#	8dd
8A	8e	8cc#
4A	8f#	8dd
.	8dd	8ff#
8AA	8cc#	8ee
=33	=33	=33
[2.AA	[4.dd [4.ff#	8ff#
.	.	8aa
.	.	8gg#
.	8dd] 8ff#]	[4.aa
.	8cc# 8ee	.
.	8b 8dd	.
8AA]	2.cc# 2.ee	2.aa]
8C#	.	.
8E	.	.
4.A	.	.
==	==	==
*-	*-	*-
!!!AFR:  prelude
!!!EFL:  85/96
!!!END:  1994/02/14/
!!!VID:  3599838686 Bach, BWV 888-01
!!!AST:  Baroque
!!!OCY:  Deutschland
!!!ODT:  1742///
!!!PDT:  1801///
!!!EED:  Walter Hewlett
!!!ENC:  Walter Hewlett
!!!YOR:  Bach Gesellschaft Edition xiv
!!!AFT:  enhanced SCORE
!!!RDT:  2011/10/07/ by Andreas Kornstaedt using massScr2hmd
!!!SCA1: Thematisch-systematisches Verzeichnis der musikalischen Werke 
!!!SCA2: Johann Sebastian Bach: Bach-Werke-Verzeichnis (Schmieder)
!!!YEC1: Copyright 1994, 2000 Center for Computer Assisted Research 
!!!YEC2: in the Humanities
!!!YEM1: Rights to all derivative editions reserved.
!!!YEM2: Refer to licensing agreement for further details.
!!!YEN:  United States of America
!!!ref:  @{OTL}, @{SCT}
!!muse2ps: T^@{OTL} @{ONM} in @{OKY}^C^J.S. Bach\n@{SCT}-@{OMV}^
!!muse2ps: u^@{OPR@ENG}, @{OVM@ENG}^j
